svgs/duotone/nfc.svg

<svg xmlns="http://www.w3.org/2000/svg" viewBox="0 0 448 512"><!--! Font Awesome Pro 6.6.0 by @fontawesome - https://fontawesome.com License - https://fontawesome.com/license (Commercial License) Copyright 2024 Fonticons, Inc. --><defs><style>.fa-secondary{opacity:.4}</style></defs><path class="fa-secondary" d="M96 144l0 224c0 8.8 7.2 16 16 16l224 0c8.8 0 16-7.2 16-16l0-224c0-8.8-7.2-16-16-16l-80 0c-8.8 0-16 7.2-16 16l0 66.7c18.6 6.6 32 24.4 32 45.3c0 26.5-21.5 48-48 48s-48-21.5-48-48c0-20.9 13.4-38.7 32-45.3l0-66.7c0-5.6 1-11 2.7-16L144 128l-32 0c-8.8 0-16 7.2-16 16z"/><path class="fa-primary" d="M64 32C28.7 32 0 60.7 0 96L0 416c0 35.3 28.7 64 64 64l320 0c35.3 0 64-28.7 64-64l0-320c0-35.3-28.7-64-64-64L64 32zm48 64l32 0c8.8 0 16 7.2 16 16s-7.2 16-16 16l66.7 0c6.6-18.6 24.4-32 45.3-32l80 0c26.5 0 48 21.5 48 48l0 224c0 26.5-21.5 48-48 48l-224 0c-26.5 0-48-21.5-48-48l0-224c0-26.5 21.5-48 48-48z"/></svg>

<svg xmlns="http://www.w3.org/2000/svg" viewBox="0 0 448 512"><!--! Font Awesome Pro 6.4.0 by @fontawesome - https://fontawesome.com License - https://fontawesome.com/license (Commercial License) Copyright 2023 Fonticons, Inc. --><defs><style>.fa-secondary{opacity:.4}</style></defs><path class="fa-primary" d="M64 32C28.7 32 0 60.7 0 96V416c0 35.3 28.7 64 64 64H384c35.3 0 64-28.7 64-64V96c0-35.3-28.7-64-64-64H64zm48 64h32c8.8 0 16 7.2 16 16s-7.2 16-16 16h66.7c6.6-18.6 24.4-32 45.3-32h80c26.5 0 48 21.5 48 48V368c0 26.5-21.5 48-48 48H112c-26.5 0-48-21.5-48-48V144c0-26.5 21.5-48 48-48z"/><path class="fa-secondary" d="M210.7 128H144 112c-8.8 0-16 7.2-16 16V368c0 8.8 7.2 16 16 16H336c8.8 0 16-7.2 16-16V144c0-8.8-7.2-16-16-16H256c-8.8 0-16 7.2-16 16v66.7c18.6 6.6 32 24.4 32 45.3c0 26.5-21.5 48-48 48s-48-21.5-48-48c0-20.9 13.4-38.7 32-45.3V144c0-5.6 1-11 2.7-16z"/></svg>
